X:1
T: Arr.  Manuel Ygnacio Ferrer (ca.1828 - 1904)
T:Switzer's Farewell
%%score ( 1 2 )
L:1/8
Q:1/4=72
M:3/4
K:D
V:1 treble-8 nm="Guitare classique"
V:2 treble-8 
V:1
"^Andante""_" Ad>"_dol."e | f3 c{/c} e>d | !1!c2!<(! !arpeggio![GB]ee>f!<)! | %3
"_""^₵2"{/f} a3!>(! gBc!>)! | d3 Ad>e |"_" f3 c{/c} e>d | c2 !arpeggio![GB]^de!4!g | %7
"_""^VII"{/!4!g} !4!c'3 b"^II" !4!a!1!c |"^III" !1!d4 d>e |!<(! fd"^₵7" !>!b3!<)! !4!a | %10
 (ag)"^₵2" [Ac]2"_cresc." e>f |!<(! (ge)!<)!!>(! c'3 b!>)! | (ba) d2 f>g | %13
"_"!<(! af{/b} f'2!<)!!>(! !4!e'>!2!d'!>)! | (c'b) e2 e>f |!<(! (ge)!<)!!>(! c'>b!>)!"_dim." a>c | %16
"^Var." [Fd]4"_Sempre" d>e | f/"_"A/d/f/{/g} !>!b3 !2!a | (a/g/)(f/g/)"^₵2" !arpeggio![Ac]2 e>f | %19
 g/c/e/g/{/g} !>!c'3 b | (b/a/)(^g/a/) !arpeggio![Ad]2 f>=g | %21
"_" a/"^rall."d/f/a/"^rit."{/a} !>!e'3 d' |"^a tempo" (c'/b/)(^a/b/) !0!e2 e>f | %23
"_""_cresc." (!>!a/!<(!g/)c/e/ (!>!a/g/)c/e/!<)! (!>!c'/b/)(g/e/) | %24
 d2"_""^₵7" !arpeggio![dfd'] z"_" f>"_legg."e | e>(f e>)(f e>)d | %26
 c/!<(!e/a/b/{/b} !4!c'3!<)! d' | (!4!c'/!1!b/)!2!d/!0!e/ b3 c' | (b/a/)c/!0!e/"^₵2" a3 (B | %29
 A>)(B A>)(B A>)!0!G |!<(! F/A/d/f/!<)!{/f} a2 !arpeggio![Adf]2 | %31
"_" !arpeggio![GBe]e/f/"_cresc." (g/f/)g/a/ (b/a/)b/c'/ | %32
{/c'} d' z"_""^₵7" !arpeggio!!^![dfd']2 x2 |] %33
V:2
 z z2 | D2 F2 z2 | !2!G,2 E2 z2 | A,2 !arpeggio![EAc]2 z2 | D2 F2 z2 | D2 F2 z2 | G,2 E2 z2 | %7
 A,2 [Aeg]2 [A,G]2 | [DF]4 z2 | D2 !arpeggio![Adf]2!>(! !arpeggio![Adf]2!>)! | %10
 A,2 !arpeggio!E2 z2 | A,2 !arpeggio![Aeg]2 !arpeggio![Aeg]2 | D2 !arpeggio![FA]2 z2 | D4 F2 | %14
 G2 !arpeggio![Bd]2 z2 | A,2 !arpeggio![Aeg]2 [A,G]2 | D4 z2 | D4 !1!F2 | A,2 E2 z2 | A,4 G2 | %20
 D2 F2 z2 | D4 F2 | G2 [Bd]2 !arpeggio![G,GB]2 | A,2 G2 A,2 | [DF]2 A z z2 | E,2 ^G2 G2 | %26
 A,2 e2 e2 | E,2 !arpeggio![^Gde]2 !arpeggio![Gde]2 | A,2 !arpeggio![EAc]2 [EAc]2 | A,2 E2 A,2 | %30
 D2 z2 D2 | !2!G,2 !>!E,2 A,2 | D z D2 z2 |] %33

